src/pos-icons/checkbox-multiple-blank-circle-outline.svg

<svg height="24" viewBox="0 0 24 24" width="24" xmlns="http://www.w3.org/2000/svg"><path d="m14 2a8 8 0 0 0 -8 8 8 8 0 0 0 8 8 8 8 0 0 0 8-8 8 8 0 0 0 -8-8m0 2c3.32 0 6 2.69 6 6 0 3.32-2.68 6-6 6a6 6 0 0 1 -6-6 6 6 0 0 1 6-6m-9.07 1.82c-1.85 1.52-2.93 3.79-2.93 6.18a8 8 0 0 0 8 8c.64 0 1.27-.08 1.88-.23-1.76-.39-3.38-1.27-4.71-2.48-1.95-1.04-3.17-3.08-3.17-5.29 0-.3.03-.59.07-.89-.04-.37-.07-.74-.07-1.11 0-1.44.32-2.87.93-4.18z"/></svg>

<?xml version="1.0" encoding="UTF-8"?><!DOCTYPE svg PUBLIC "-//W3C//DTD SVG 1.1//EN" "http://www.w3.org/Graphics/SVG/1.1/DTD/svg11.dtd"><svg xmlns="http://www.w3.org/2000/svg" xmlns:xlink="http://www.w3.org/1999/xlink" version="1.1" id="mdi-checkbox-multiple-blank-circle-outline" width="24" height="24" viewBox="0 0 24 24"><path d="M14,2A8,8 0 0,0 6,10A8,8 0 0,0 14,18A8,8 0 0,0 22,10A8,8 0 0,0 14,2M14,4C17.32,4 20,6.69 20,10C20,13.32 17.32,16 14,16A6,6 0 0,1 8,10A6,6 0 0,1 14,4M4.93,5.82C3.08,7.34 2,9.61 2,12A8,8 0 0,0 10,20C10.64,20 11.27,19.92 11.88,19.77C10.12,19.38 8.5,18.5 7.17,17.29C5.22,16.25 4,14.21 4,12C4,11.7 4.03,11.41 4.07,11.11C4.03,10.74 4,10.37 4,10C4,8.56 4.32,7.13 4.93,5.82Z" /></svg>
